X:1
T:The Skyeſhore
C:T. S. Macdonald
M:C|
L:1/8
K:D
%%text Slowiſh
A>B | d2 A>B d>AB<d | e>fg>f e2 A>B | d2 A>B d>BA<F | E6 A>B |
      d2 A>B d>AB<d | e>fg<b a>fe<d | e>fg>f e<AB>A | B2 d2 d2 ||
e>f | g2 e>f g>fe<d | g>fe<d B2 e>f | g2 e>f g>fe<d | A6 e>f |
      g2 e>f g>fe<d | e<dB>A B2 A>F | A<Bg>f e<AB>A | B2 d2 d2 |]

